X: 1
T: Tokyo Dontaku
O: Japan
M: 4/4
L: 1/8
K: Fm
[| F2 F>E F2  G>G | F>E  C2 C4   | B>B A>_G B>B c>B | F>F d>d c2 d>c |
|  B2 c>B c>c d>d | c>B _G2 F4   | F2  C>B, C>E F>G | B2  F2  F3   B |
|  c2 B>B c>c B>B | c>c d>d c3 G | G2  c>B  G>F E>F | G>E F2  F4    |]


%%sep 3 1 500

